site/static/img/page-produits/serviette.svg

<svg height="143" viewBox="0 0 143 143" width="143" xmlns="http://www.w3.org/2000/svg"><g fill="none" fill-rule="evenodd"><circle cx="71.5" cy="71.5" fill="#ffd8dd" r="71.5"/><g transform="matrix(-.48480962 .87461971 -.87461971 -.48480962 138.176608 47.663054)"><path d="m71.0227014 11.1854232c-1.4196-1.27659996-8.6515.9191-8.6515.9191s-1.1869-1.0985-3.2487-2.49989996c-2.0631-1.4027-8.6255 1.12319996-11.3841 1.58729996s-2.1346-2.74949996-13.2132-9.24169996-24.98080003 9.41719996-24.98080003 9.41719996-11.8144 17.5162-2.6988 26.5603c9.11430003 9.0441 12.06010003 7.618 12.31880003 10.4026.3094 3.3059-.4992 7.098.8762 10.2869.3263.754.7605 1.4456 1.3481 2.0254.5616.5551 2.0345.9802 2.3725 1.5847.4082.7306-.0611 2.7456-.0286 3.6049.0468 1.2467.1716 2.5194.6357 3.6894.7397 1.8577 2.8093 3.2201 4.2523 4.5747 2.0085 1.885 4.0456 3.7401 6.1646 5.5003 1.9747 1.6406 3.8909 3.1902 6.5273 2.7469 1.9526-.3289 3.8961-.7956 5.8305-1.2181 0 0 2.1788 3.8922 5.9644 3.2955 3.7856-.598 6.9537-3.5178 10.3571-1.4547 3.4008 2.0631 7.7207 10.3753 16.4619 9.3405 8.7399-1.0361 16.8389-4.5968 20.8389996-10.7575 4.9283-5.4444 6.2959-14.1856 5.0557-22.8995-1.2415-8.7139-10.3830996-10.7588-13.2495996-13.5187-2.8652-2.7586-.8554-6.5702-1.2493-10.3831-.3913-3.8077-4.7034-4.9179-4.7125-4.9192-.3302-.0845-.3042-6.8887-.6331-7.6518-.3601-.8385-1.0452-1.4911-1.7342-2.0891-4.017-3.4853-9.321-5.395-13.2197-8.9024" fill="#c5e2e0"/><path d="m67.6306114 10.7917832c-1.4196-1.27659996-8.6515.9191-8.6515.9191s-1.1869-1.0985-3.25-2.49989996c-2.0618-1.4014-8.6242 1.12319996-11.3828 1.58729996s-2.1346-2.74949996-13.2132-9.24169996c-11.0799-6.4909-24.98210003 9.41719996-24.98210003 9.41719996s-11.8131 17.5162-2.6975 26.5616c9.11430003 9.0441 12.06010003 7.6167 12.31880003 10.4013.3081 3.3059-.4992 7.098.8762 10.2869.3263.7553.7605 1.4469 1.3481 2.0254.5616.5551 2.0345.9815 2.3712 1.5847.4082.7306-.0611 2.7456-.0286 3.6049.0481 1.2467.1716 2.5194.637 3.6894.7397 1.859 2.808 3.2201 4.2523 4.5747 2.0072 1.885 4.0456 3.7401 6.1646 5.5003 1.9747 1.6406 3.8909 3.1915 6.5273 2.7469 1.9526-.3276 3.8948-.7943 5.8305-1.2181 0 0 2.1775 3.8935 5.9631 3.2955s6.955-3.5165 10.3571-1.4547c3.4021 2.0631 7.722 10.3753 16.4632 9.3405 8.7399-1.0348 16.8376-4.5968 20.8377-10.7562 4.9295996-5.4457 6.2958996-14.1869 5.0556996-22.9008-1.2415-8.7126-10.3830996-10.7588-13.2482996-13.5174-2.8652-2.7599-.8567-6.5715-1.2493-10.3844-.3926-3.8077-4.7047-4.9166-4.7138-4.9192-.3289-.0845-.3042-6.8887-.6318-7.6518-.3614-.8385-1.0452-1.4898-1.7342-2.0878-4.0183-3.4866-9.321-5.3963-13.2197-8.9037" fill="#fff"/><path d="m69.7646914 40.8575332c-6.2426-3.5009-12.6061-7.787-18.3209-12.2187-2.9835-2.3127-5.8279-4.8191-8.3603-7.6219-2.3933-2.6481-4.0807-5.9332-6.7353-8.3161-4.5552-4.09239996-10.3272-8.18089996-16.5074-5.32219996-3.588 1.6575-6.0788 4.59159996-8.5228 7.57119996-1.99030003 2.4271-9.46400003 12.5203-2.27500003 19.344 3.41250003 3.2383 6.86530003 5.9098 11.27620003 7.6791 8.359 3.3553 15.21 9.0012 22.022 14.768 5.6758 4.8035 11.1293 9.8657 16.3423 15.1658 5.8552 5.9553 12.129 13.3133 21.1159 13.7943 2.2347.1196 4.5396-.3133 6.435-1.5028 2.5883-1.625 3.848-4.3498 4.2731-7.2852 7.8195-3.7349 8.3759-14.7056 2.7768-20.6375-4.2549-4.5058-10.4572-7.6973-15.7118-10.8602-2.5805-1.5548-5.1792-3.0836-7.8078-4.5578" fill="#e7364b"/></g></g></svg>

<?xml version="1.0" encoding="UTF-8"?>
<svg width="143px" height="143px" viewBox="0 0 143 143" version="1.1" xmlns="http://www.w3.org/2000/svg" xmlns:xlink="http://www.w3.org/1999/xlink">
    <!-- Generator: Sketch 61.1 (89650) - https://sketch.com -->
    <title>Group 3</title>
    <desc>Created with Sketch.</desc>
    <g id="Page-1" stroke="none" stroke-width="1" fill="none" fill-rule="evenodd">
        <g id="QUELS-PRODUITS-DEPOSER" transform="translate(-608.000000, -800.000000)">
            <g id="Group-3" transform="translate(608.000000, 800.000000)">
                <circle id="Oval-Copy-3" fill="#FFD8DD" cx="71.5" cy="71.5" r="71.5"></circle>
                <g id="Group-13" transform="translate(71.688304, 71.748757) rotate(119.000000) translate(-71.688304, -71.748757) translate(18.388304, 25.273757)">
                    <path d="M71.0227014,11.1854232 C69.6031014,9.90882324 62.3712014,12.1045232 62.3712014,12.1045232 C62.3712014,12.1045232 61.1843014,11.0060232 59.1225014,9.60462324 C57.0594014,8.20192324 50.4970014,10.7278232 47.7384014,11.1919232 C44.9798014,11.6560232 45.6038014,8.44242324 34.5252014,1.95022324 C23.4466014,-4.54197676 9.54440137,11.3674232 9.54440137,11.3674232 C9.54440137,11.3674232 -2.26999863,28.8836232 6.84560137,37.9277232 C15.9599014,46.9718232 18.9057014,45.5457232 19.1644014,48.3303232 C19.4738014,51.6362232 18.6652014,55.4283232 20.0406014,58.6172232 C20.3669014,59.3712232 20.8011014,60.0628232 21.3887014,60.6426232 C21.9503014,61.1977232 23.4232014,61.6228232 23.7612014,62.2273232 C24.1694014,62.9579232 23.7001014,64.9729232 23.7326014,65.8322232 C23.7794014,67.0789232 23.9042014,68.3516232 24.3683014,69.5216232 C25.1080014,71.3793232 27.1776014,72.7417232 28.6206014,74.0963232 C30.6291014,75.9813232 32.6662014,77.8364232 34.7852014,79.5966232 C36.7599014,81.2372232 38.6761014,82.7868232 41.3125014,82.3435232 C43.2651014,82.0146232 45.2086014,81.5479232 47.1430014,81.1254232 C47.1430014,81.1254232 49.3218014,85.0176232 53.1074014,84.4209232 C56.8930014,83.8229232 60.0611014,80.9031232 63.4645014,82.9662232 C66.8653014,85.0293232 71.1852014,93.3415232 79.9264014,92.3067232 C88.6663014,91.2706232 96.7653014,87.7099232 100.765401,81.5492232 C105.693701,76.1048232 107.061301,67.3636232 105.821101,58.6497232 C104.579601,49.9358232 95.4380014,47.8909232 92.5715014,45.1310232 C89.7063014,42.3724232 91.7161014,38.5608232 91.3222014,34.7479232 C90.9309014,30.9402232 86.6188014,29.8300232 86.6097014,29.8287232 C86.2795014,29.7442232 86.3055014,22.9400232 85.9766014,22.1769232 C85.6165014,21.3384232 84.9314014,20.6858232 84.2424014,20.0878232 C80.2254014,16.6025232 74.9214014,14.6928232 71.0227014,11.1854232" id="Fill-1" fill="#C5E2E0"></path>
                    <path d="M67.6306114,10.7917832 C66.2110114,9.51518324 58.9791114,11.7108832 58.9791114,11.7108832 C58.9791114,11.7108832 57.7922114,10.6123832 55.7291114,9.21098324 C53.6673114,7.80958324 47.1049114,10.3341832 44.3463114,10.7982832 C41.5877114,11.2623832 42.2117114,8.04878324 31.1331114,1.55658324 C20.0532114,-4.93431676 6.15101137,10.9737832 6.15101137,10.9737832 C6.15101137,10.9737832 -5.66208863,28.4899832 3.45351137,37.5353832 C12.5678114,46.5794832 15.5136114,45.1520832 15.7723114,47.9366832 C16.0804114,51.2425832 15.2731114,55.0346832 16.6485114,58.2235832 C16.9748114,58.9788832 17.4090114,59.6704832 17.9966114,60.2489832 C18.5582114,60.8040832 20.0311114,61.2304832 20.3678114,61.8336832 C20.7760114,62.5642832 20.3067114,64.5792832 20.3392114,65.4385832 C20.3873114,66.6852832 20.5108114,67.9579832 20.9762114,69.1279832 C21.7159114,70.9869832 23.7842114,72.3480832 25.2285114,73.7026832 C27.2357114,75.5876832 29.2741114,77.4427832 31.3931114,79.2029832 C33.3678114,80.8435832 35.2840114,82.3944832 37.9204114,81.9498832 C39.8730114,81.6222832 41.8152114,81.1555832 43.7509114,80.7317832 C43.7509114,80.7317832 45.9284114,84.6252832 49.7140114,84.0272832 C53.4996114,83.4292832 56.6690114,80.5107832 60.0711114,82.5725832 C63.4732114,84.6356832 67.7931114,92.9478832 76.5343114,91.9130832 C85.2742114,90.8782832 93.3719114,87.3162832 97.3720114,81.1568832 C102.301611,75.7111832 103.667911,66.9699832 102.427711,58.2560832 C101.186211,49.5434832 92.0446114,47.4972832 89.1794114,44.7386832 C86.3142114,41.9787832 88.3227114,38.1671832 87.9301114,34.3542832 C87.5375114,30.5465832 83.2254114,29.4376832 83.2163114,29.4350832 C82.8874114,29.3505832 82.9121114,22.5463832 82.5845114,21.7832832 C82.2231114,20.9447832 81.5393114,20.2934832 80.8503114,19.6954832 C76.8320114,16.2088832 71.5293114,14.2991832 67.6306114,10.7917832" id="Fill-3" fill="#FFFFFF"></path>
                    <path d="M69.7646914,40.8575332 C63.5220914,37.3566332 57.1585914,33.0705332 51.4437914,28.6388332 C48.4602914,26.3261332 45.6158914,23.8197332 43.0834914,21.0169332 C40.6901914,18.3688332 39.0027914,15.0837332 36.3481914,12.7008332 C31.7929914,8.60843324 26.0209914,4.51993324 19.8407914,7.37863324 C16.2527914,9.03613324 13.7619914,11.9702332 11.3179914,14.9498332 C9.32769137,17.3769332 1.85399137,27.4701332 9.04299137,34.2938332 C12.4554914,37.5321332 15.9082914,40.2036332 20.3191914,41.9729332 C28.6781914,45.3282332 35.5291914,50.9741332 42.3411914,56.7409332 C48.0169914,61.5444332 53.4704914,66.6066332 58.6834914,71.9067332 C64.5386914,77.8620332 70.8124914,85.2200332 79.7993914,85.7010332 C82.0340914,85.8206332 84.3389914,85.3877332 86.2343914,84.1982332 C88.8226914,82.5732332 90.0823914,79.8484332 90.5074914,76.9130332 C98.3269914,73.1781332 98.8833914,62.2074332 93.2842914,56.2755332 C89.0293914,51.7697332 82.8270914,48.5782332 77.5724914,45.4153332 C74.9919914,43.8605332 72.3932914,42.3317332 69.7646914,40.8575332" id="Fill-5" fill="#E7364B"></path>
                </g>
            </g>
        </g>
    </g>
</svg>
